!!!COM: Joplin, Scott
!!!CDT: 1868/11/24-1917/04/01
!!!OTL: Lily Queen, Ragtime Two-Step
!!!AGN: Ragtime; Two-step
!!!ODT: 1907
!!!OMD: Moderato.
**kern	**kern	**dynam
*staff2	*staff1	*staff1/2
*Ipiano	*Ipiano	*Ipiano
*>[I,A,A1,A,A2,B,B1,B,B2,C,D,D1,D,D2,E,E1,E,E2]	*>[I,A,A1,A,A2,B,B1,B,B2,C,D,D1,D,D2,E,E1,E,E2]	*>[I,A,A1,A,A2,B,B1,B,B2,C,D,D1,D,D2,E,E1,E,E2]
*>norep[I,A,A2,B,B2,C,D,D2,E,E2]	*>norep[I,A,A2,B,B2,C,D,D2,E,E2]	*>norep[I,A,A2,B,B2,C,D,D2,E,E2]
*>I	*>I	*>I
*clefF4	*clefG2	*clefG2
*k[]	*k[]	*k[]
*M2/4	*M2/4	*M2/4
*MM100	*MM100	*MM100
=1-	=1-	=1-
(16GLL	(16gLL	mf
16e	16ee	.
16c	16cc	.
[16GJJ)	[16gJJ)	.
(16GLL]	(16gLL]	.
16EJ	16eJ	.
8CJ)	8cJ)	.
=2	=2	=2
*	*^	*
(8AL	(16fLL	8fL	.
.	16cc	.	.
8A-J	16d	8dJ	.
.	16fJJ)	.	.
4G)	(16eLK	4e	.
.	8.ccJ)	.	.
=3	=3	=3	=3
((4A AA	8.f#	(>16ccLL c	.
.	.	16dd d	.
.	.	16dd# d#	.
.	16cc	16ff#JJ f#X)	.
4G GG))	4ryy	16ggLK b g	.
.	.	8ee b g	.
.	.	16ddnJk b fn	.
*	*v	*v	*
=4	=4	=4
8c C	8cc g e	.
8r	8r	.
8CL CC	8cccL ee cc	.
8cJ C	8eeJ cc b-	.
!!LO:LB:g=original
=5!|:	=5!|:	=5!|:
*>A	*>A	*>A
8FL FF	4ff cc a	.
8fJ c A	.	.
8AL AA	4ccc ff cc	mf
8A-J AA-	.	.
=6	=6	=6
8GL GG	4gg ee cc g	.
8eJ c G	.	.
8eL E	4aa cc a	.
8e-J E-	.	.
=7	=7	=7
8dL D	16ff#LK	.
.	8gg dd b	.
8fJ B G	.	.
.	16ff#Jk	.
8GL GG	8ggL dd b	.
8fJ B G	16ff#L	.
.	[16ggJJ [ee [cc	.
=8	=8	=8
8cL C	8gg]L ee] cc]	.
8CJ CC	(16ggL ee cc	.
.	16ff#JJ)	.
8DL DD	(16ggLL ee cc	.
.	16ff#J)	.
8EJ EE	8ggJ cc	.
=9	=9	=9
8FL FF	4aa ffn cc	.
8fJ c A	.	.
8AL AA	4ccc ff cc	.
8A-J AA-	.	.
=10	=10	=10
8GL GG	4gg ee cc g	.
8eJ c G	.	.
4C# CC#	4ee a# g	.
!!LO:LB:g=original
=11	=11	=11
8DL DD	4dd/ b/ g/	.
8dJ B G	.	.
8GL GG	4bb gg dd	.
8dJ B G	.	.
=12	=12	=12
*	*^	*
8DL DD	(16aaLL	4ff# cc	.
.	16gg#	.	.
8dJ c F#	16aa	.	.
.	16bbJJ)	.	.
8GL GG	4ryy	8ggnL dd b	.
8cJ C	.	8eeJ cc b-	.
*	*v	*v	*
=13	=13	=13
8FL FF	4ff cc a	.
8fJ c A	.	.
8AL AA	4ccc ff cc	.
8A-J AA-	.	.
=14	=14	=14
8GL GG	4gg ee cc g	.
8eJ c G	.	.
8eL E	4aa cc a	.
8e-J E-	.	.
=15	=15	=15
8dL D	16ff#LK	.
.	8gg dd b	.
8fJ B G	.	.
.	16ff#Jk	.
8GL GG	8ggL dd b	.
8fJ B G	16ff#L	.
.	[16ggJJ [ee [cc	.
=16	=16	=16
*	*^	*
8eL E	4ryy	8gg]L ee] cc]	.
8dJ D	.	(16ggL ee cc	.
.	.	16ff#JJ)	.
8cL C	8ggL	8eeL cc	.
8BJ BB	(16ddL	8g#J e	.
.	16eeJJ)	.	.
*	*v	*v	*
!!LO:LB:g=original
=17	=17	=17
4A AA	4cc a e	.
4A- AA-	4cc f c	.
=18	=18	=18
4G GG	4cc e c	.
4F# FF#	4a d# c	.
=19	=19	=19
*>A1	*>A1	*>A1
8GL> GG	4g e c	.
8GJ	.	.
8cL C	8.eeL cc g	.
8eJ c G	.	.
.	[16ccJk [f#	.
=20	=20	=20
*	*^	*
8AL AA	16ccLL]	8f#L]	.
.	16eeJ	.	.
8GJ GG	8ddJ	8bJ fn	.
8cL C	8ccL g e	4ryy	.
8CJ CC	8eeJ cc b-	.	.
*	*v	*v	*
=21:|!	=21:|!	=21:|!
*>A2	*>A2	*>A2
8GL> GG	4g e c	.
8GJ	.	.
8cL C	8.eeL cc g	.
8eJ c G	.	.
.	[16ccJk [f#	.
=22	=22	=22
*	*^	*
8AL> AA	16ccLL]	8f#L]	.
.	16eeJ	.	.
8GJ GG	8ddJ	8bJ fn	.
8c C	4ryy	8ccL g e	.
8r	.	16ggL g	.
.	.	16aaJJ a	.
*	*v	*v	*
!!LO:LB:g=original
=23!|:	=23!|:	=23!|:
*>B	*>B	*>B
*	*^	*
8dL D	(16ffLK	(4b	f
.	8bb	.	.
8fJ B G	.	.	.
.	16aaJk)	.	.
8c#L C#	(16eeLK	4a#)	.
.	8aa	.	.
8eJ A# G	.	.	.
.	16ggJk)	.	.
*	*v	*v	*
=24	=24	=24
8dL D	16ggLL b	.
.	16g	.
8fJ B G	16a	.
.	[16bJJ	.
8GL GG	16bLL]	.
.	16cc	.
8fJ B G	16dd	.
.	16dd#JJ	.
=25	=25	=25
8cL C	16eeLL	.
.	16g	.
8eJ c G	16a	.
.	16bJJ	.
((8EL EE	16ccLK	.
.	8bb ff# dd# cc	.
8D#J DD#))	.	.
.	16aaJk ff# dd# cc	.
=26	=26	=26
8EL EE	4gg ee cc	.
8eJ c G	.	.
8eL E	16r	.
.	8ggL cc g	.
8e-J E-	.	.
.	16cccJk gg cc	.
!!LO:LB:g=original
=27	=27	=27
((4d D	(>8bL f	.
.	8b- f	.
4c C))	8a f	.
.	8a-J f)	.
=28	=28	=28
8BL BB	2g f	.
8FJ FF	.	.
8EL EE	.	.
8DJ DD	.	.
=29	=29	=29
*	*^	*
(4C CC	4g G	8r	.
.	.	8e c	.
4C# CC#)	4g G	8r	.
.	.	8e A#	.
=30	=30	=30	=30
(4D DD	(4.g G	8r	.
.	.	16fLL B	.
.	.	16fJJ B	.
4GG)	.	8f B	.
.	8gg g)	8r	.
=31	=31	=31	=31
8dL D	(16ffLK	(4b	.
.	8bb	.	.
8fJ B G	.	.	.
.	16aaJk)	.	.
8c#L C#	(16eeLK	4a#)	.
.	8aan	.	.
8eJ A# G	.	.	.
.	16ggJk)	.	.
*	*v	*v	*
!!LO:LB:g=original
=32	=32	=32
8dL D	16ggLL< b	.
.	16g	.
8fJ B G	16a	.
.	[16bJJ	.
8GL GG	16bLL]	.
.	16cc	.
8fJ B G	16dd	.
.	16dd#JJ	.
=33	=33	=33
8cL C	16eeLL	.
.	16g	.
8eJ c G	16a	.
.	16bJJ	.
8B-L BB-	16ccLK	.
.	8aa	.
8eJ c G	.	.
.	16ggJk	.
=34	=34	=34
8AL AA	[4cc	.
8f c A	.	.
8fJ c A	16ccLL]	.
.	(16a	.
8r	16cc	.
.	16ffJJ)	.
=35	=35	=35
8FL FF	4aa ff cc	.
8fJ c A	.	.
8A-L AA-	4ff cc	.
8fJ c A-	.	.
!!LO:LB:g=original
=36	=36	=36
*	*^	*
8GL GG	4ryy	4ee cc g	.
8eJ c G	.	.	.
8AL AA	16r	16r	.
.	8ffL	8.cc# g	.
8c#J A G	.	.	.
.	16eeJk	.	.
*	*v	*v	*
=37	=37	=37
*>B1	*>B1	*>B1
*	*^	*
8DL DD	(8ccnL	4f#	.
8cJ A F#	8aJ)	.	.
8GL GG	16ccLK	16fnLK	.
.	8dd b	8f	.
8BJ G Fn	.	.	.
.	[16ccJk	[16eJk	.
*	*v	*v	*
=38	=38	=38
8c C	8cc]L e]	.
8r	16ggL g	.
.	16ggJJ g	.
4r	8ggL g	.
.	8aaJ a	.
=39:|!	=39:|!	=39:|!
*>B2	*>B2	*>B2
*	*^	*
8DL DD	(8ccnL	4f#	.
8cJ A F#	8aJ)	.	.
8GL GG	16ccLK	16fnLK	.
.	8dd	8b f	.
8BJ G Fn	.	.	.
.	[16ccJk	[16eJk	.
*	*v	*v	*
=40	=40	=40
8cL C	4.cc] e]	.
8G GG	.	.
8C CC	.	.
8cJ C	8ee cc b-	.
!!LO:LB:g=original
=41||	=41||	=41||
*>C	*>C	*>C
8FL FF	4ff cc a	mf
8fJ c A	.	.
8AL AA	4ccc ff cc	.
8A-J AA-	.	.
=42	=42	=42
8GL GG	4gg ee cc g	.
8eJ c G	.	.
8eL E	4aa cc a	.
8e-J E-	.	.
=43	=43	=43
8dL D	16ff#LK	.
.	8gg dd b	.
8fJ B G	.	.
.	16ff#Jk	.
8GL GG	16ggLK dd b	.
.	8ff#	.
8fJ B G	.	.
.	[16ggJk [ee [cc	.
=44	=44	=44
8cL C	8gg]LK ee] cc]	.
8CJ CC	(16gg ee cc	.
.	16ff#Jk)	.
8DL DD	(16ggLK ee cc	.
.	16ff#)	.
8EJ EE	8ggJk cc	.
=45	=45	=45
8FL FF	4aa ffn cc	.
8fJ c A	.	.
8AL AA	4ccc ff cc	.
8A-J AA-	.	.
!!LO:LB:g=original
=46	=46	=46
8GL GG	4gg ee cc g	.
8eJ c G	.	.
4C# CC#	4ee a# g	.
=47	=47	=47
8DL DD	4dd b g	.
8dJ B G	.	.
8GL GG	4bb gg dd	.
8dJ B G	.	.
=48	=48	=48
*	*^	*
8DL DD	(16aaLL	4ff# cc	.
.	16gg#	.	.
8dJ c F#	16aa	.	.
.	16bbJJ)	.	.
8GL GG	4ryy	8ggnL dd b	.
8cJ C	.	8eeJ cc b-	.
*	*v	*v	*
=49	=49	=49
8FL FF	4ff cc a	.
8fJ c A	.	.
8AL AA	4ccc ff cc	.
8A-J AA-	.	.
=50	=50	=50
8GL GG	4gg ee cc g	.
8eJ c G	.	.
8eL E	4aa cc a	.
8e-J E-	.	.
!!LO:LB:g=original
=51	=51	=51
8dL D	16ff#LK	.
.	8gg dd b	.
8fJ B G	.	.
.	16ff#Jk dd b	.
8GL GG	8ggL dd b	.
8fJ B G	16ff#L	.
.	[16ggJJ [ee [cc	.
=52	=52	=52
*	*^	*
8eL E	4ryy	8gg]L ee] cc]	.
8dJ D	.	(16ggL ee cc	.
.	.	16ff#JJ)	.
8cL C	8ggL	8eeL cc	.
8BJ BB	(16ddL	8g#J e	.
.	16eeJJ)	.	.
*	*v	*v	*
=53	=53	=53
4A AA	4cc a e	.
4A- AA-	4cc f c	.
=54	=54	=54
4G GG	4cc e c	.
4F# FF#	4a d# c	.
=55	=55	=55
8GL> GG	4g e c	.
8GJ	.	.
8cL C	8.eeL cc g	.
8eJ c G	.	.
.	[16ccJk [f#	.
=56	=56	=56
*	*^	*
8AL> AA	16ccLL]	8f#L]	.
.	16eeJ	.	.
8GJ GG	8ddJ	8bJ fn	.
8c C	8cc e	4ryy	.
8r	8r	.	.
*	*v	*v	*
!!LO:LB:g=original
=57!|:	=57!|:	=57!|:
*>D	*>D	*>D
*k[b-]	*k[b-]	*k[b-]
*	*^	*
8FL FF	8aaL	(4ff cc	p
8fJ c A	(16aaL	.	.
.	16gg#JJ)	.	.
8F#L FF#	8aaL	4dd#)	.
8d#J c A	(16aaL	.	.
.	16aa-JJ)	.	.
=58	=58	=58	=58
8GL GG	(16ggLK	4ee	.
.	8.cccJ)	.	.
8eJ c B-	.	.	.
8CL CC	16r	16r	.
.	(16ccLL	16ccLK	.
8eJ c B-	16dd	8b-J	.
.	16eeJJ)	.	.
*	*v	*v	*
=59	=59	=59
8FL FF	8ffL a	.
8e-	8cc	.
8d	8bn	.
8d-J	8b-J	.
=60	=60	=60
8cL<	8aL	.
8Bn	8g#	.
8B-	8gn	.
8C^^J CC	8cc^^J b- e	.
!!LO:LB:g=original
=61	=61	=61
*	*^	*
8FL FF	8aaL	(4ff cc	.
8fJ c A	(16aaL	.	.
.	16gg#JJ)	.	.
8F#L FF#	8aaL	4dd#)	.
8d#J c A	(16aaL	.	.
.	16bbnJJ)	.	.
=62	=62	=62	=62
8GL GG	(16cccLK	4ee	.
.	8.ggJ)	.	.
8eJ c G	.	.	.
4e c G	8r	8r	.
.	(16eeLL	8cc	.
.	16ffJJ)	.	.
=63	=63	=63	=63
8EL EE	(16ggLK	4cc	.
.	8.aaJ)	.	.
8eJ c G	.	.	.
8GL GG	16eeLK bn g	4ryy	.
.	8dd b f	.	.
8BnJ G	.	.	.
.	[16ccJk [>g [<e	.	.
*	*v	*v	*
=64	=64	=64
8cL C	2cc] g] e]	.
8B-X BB-X	.	.
8A AA	.	.
8GJ GG	.	.
!!LO:LB:g=original
=65	=65	=65
*	*^	*
8FL FF	8aaL	4ff cc	.
8fJ c A	(16aaL	.	.
.	16gg#JJ)	.	.
8F#L FF#	8aaL	4dd#	.
8d#J c A	(16aaL	.	.
.	16aa-JJ)	.	.
=66	=66	=66	=66
8GL GG	(16ggLK	4ee	.
.	8.cccJ)	.	.
8eJ c B-	.	.	.
8CL CC	16r	16r	.
.	(16ccLL	16ccLL	.
8eJ c B- G	16dd	16dd	.
.	16eeJJ)	16eeJJ	.
=67	=67	=67	=67
8FL FF	4ryy	4ff ee-	.
8e-J c A F	.	.	.
8AL AA	16ggLK	8.ee-L	.
.	8aa	.	.
8e-J c A F	.	.	.
.	[16ffJk	[16ddJk	.
=68	=68	=68	=68
8B-L> BB-	2ff]	2dd]	.
8FJ FF	.	.	.
8EL EE	.	.	.
8E-J EE-	.	.	.
*	*v	*v	*
=69	=69	=69
8DL DD	4aa ff# cc	.
8dJ c F#	.	.
8dL D	4dd cc	.
8cJ C	.	.
!!LO:LB:g=original
=70	=70	=70
*	*^	*
8B-L BB-	(16ggLL	4dd	.
.	16aa	.	.
8dJ B- G	16bb-	.	.
.	16ggJJ)	.	.
8DL DD	8aaL	8ddL b-	.
8D-J DD-	8ggJ	8ffJ b-	.
*	*v	*v	*
=71	=71	=71
*>D1	*>D1	*>D1
8CL CC	4aa ff cc	.
8fJ c A	.	.
8CL CC	16aaLK ee cc	.
.	8gg ee b-	.
8eJ c B-	.	.
.	[16ffJk [cc [a	.
=72	=72	=72
*	*^	*
8F FF	8ryy	8ff]L cc] a]	.
8r	16ccLL	16ccL	.
.	16ccJJ	16ccJJ	.
4B- C	(8ggL	4ee cc	.
.	8gg#J)	.	.
*	*v	*v	*
=73:|!	=73:|!	=73:|!
*>D2	*>D2	*>D2
8CL CC	4aa ff cc	.
8fJ c A	.	.
8CL CC	16aaLK ee cc	.
.	8gg ee b-	.
8eJ c B-	.	.
.	[16ffJk [cc [a	.
=74	=74	=74
8FL FF	4ff] cc] a]	<
8C CC	.	.
8D DD	4bb- gg cc	.
8EJ EE	.	[
!!LO:LB:g=original
=75!|:	=75!|:	=75!|:
*>E	*>E	*>E
.	(16ggqLL	.
.	16gg#qJJ	.
8FL FF	16aaLL)	mf
.	16dddJ	.
8fJ c A	8cccJ aa	.
.	(16ggqLL	.
.	16gg#qJJ	.
8CL CC	16aaLL)	.
.	16ddd	.
8fJ c A	16ccc aa	.
.	[16cccJJ [<aa [ff	.
=76	=76	=76
8FL FF	4ccc] aa] ff]	.
8FJ FF	.	.
8GL> GG	4ccc aa ee-	.
8AJ AA	.	.
=77	=77	=77
.	((16ccqLL	.
.	16cc#qJJ	.
8B-L BB-	16ddLL)	.
.	16ggJ	.
8fJ d B-	8ffJ dd	.
.	(16ccnqLL	.
.	16cc#qJJ	.
8GL GG	16ddLL)	.
.	16gg	.
8G#J GG#	16ff dd	.
.	[16ffJJ [cc	.
=78	=78	=78
8AL AA	4ff] cc]	.
8CJ CC	.	.
8DL DD	4bb- gg cc	.
8EJ EE	.	.
!!LO:LB:g=original
=79	=79	=79
.	(16ggqLL	.
.	16gg#qJJ	.
8FL FF	16aaLL)	.
.	16dddJ	.
8fJ c A	8cccJ aa	.
.	(16ggnqLL	.
.	16gg#qJJ	.
8CL CC	16aaLL)	.
.	16ddd	.
8fJ c A	16ccc aa	.
.	[16cccJJ [aa [ff	.
=80	=80	=80
8FL FF	4ccc_ aa_ ff_	.
8fJ c A	.	.
8AL AA	16ccc]LK aa] ff]	.
.	8ccc cc	.
8FJ FF	.	.
.	16dddJk dd	.
=81	=81	=81
*	*^	*
8EL EE	16eeeLL	8.aaL ee	.
.	16ccc	.	.
8eJ c A	16aa	.	.
.	[16cccJJ	[16gg#Jk [dd	.
8EL EE	4ryy	8ccc]L gg#] dd]	.
8eJ d G#	.	8bbnJ gg# dd	.
*	*v	*v	*
=82	=82	=82
8AL AA	8aaL ee cc	.
8F#J FF#	8aaJ dd# cc	.
8GL GG	4bb-X ee cc	.
8CJ CC	.	.
!!LO:LB:g=original
=83	=83	=83
.	(16ggqLL	.
.	16gg#qJJ	.
8FL FF	16aaLL)	.
.	16dddJ	.
8fJ c A	8cccJ aa	.
.	(16ggnqLL	.
.	16gg#qJJ	.
8CL CC	16aaLL)	.
.	16ddd	.
8fJ c A	16ccc aa	.
.	[16cccJJ [aa [ff	.
=84	=84	=84
8FL FF	4ccc] aa] ff]	.
8FJ FF	.	.
8GL> GG	4ccc aa ee-	.
8AJ AA	.	.
=85	=85	=85
.	(16ccnqLL	.
.	16cc#qJJ	.
8B-L BB-	16ddLL)	.
.	16ggJ	.
8fJ d B-	8ffJ dd	.
.	(16ccnqLL	.
.	16cc#qJJ	.
8GL GG	16ddLL)	.
.	16gg	.
8G#J GG#	16ff dd	.
.	[16ffJJ [ccny	.
=86	=86	=86
8AL AA	4ff_ cc_	.
8fJ c A	.	.
8AL> AA	16ff]LK cc]	.
.	8ccc cc	.
8GJ GG	.	.
.	16ccc#Jk cc#	.
!!LO:LB:g=original
=87	=87	=87
8F#L FF#	8dddL aa dd	.
8dJ c F#	[8cccJ [aa [cc	.
8dL D	8ccc]L aa] cc]	.
8cJ C	8aaJ ff# dd	.
=88	=88	=88
*	*^	*
8B-L BB-	(<16ggLL	4dd	.
.	16aa	.	.
8dJ B- G	16bb-	.	.
.	16ggJJ)	.	.
8DL DD	4ryy	8aaL dd b-	.
8D-J DD-	.	8ggJ ff b-	.
*	*v	*v	*
=89	=89	=89
*>E1	*>E1	*>E1
8CL CC	4aa ff cc	.
8fJ c A	.	.
8CL CC	16aaLK ee cc	.
.	8gg ee b-	.
8eJ c B-	.	.
.	[16ffJk [cc [a	.
=90	=90	=90
8FL FF	4ff] cc] a]	.
8C CC	.	.
8D DD	4bb- gg cc	.
8EJ EE	.	.
=91:|!	=91:|!	=91:|!
*>E2	*>E2	*>E2
8CL CC	4aa ff cc	.
8fJ c A	.	.
8CL CC	16aaLK ee cc	.
.	8gg ee b-	.
8eJ c B-	.	.
.	[16ffJk [cc [a	.
=92	=92	=92
8FL FF	4ff] cc] a]	.
8C	.	.
8FFJ	8fff ccc aa ff	.
8r	8r	.
!	!LO:TX:c:i:t=Fine.	!
==	==	==
*-	*-	*-
!!!RDF**kern: > = above
!!!RDF**kern: < = below
!!!URL-vhv: https://verovio.humdrum.org/?file=joplin/lilyqueen.krn
!!!URL-pdf-original: https://github.com/craigsapp/joplin/blob/master/reference-edition/lilyqueen.pdf
!!!ENC: Craig Stuart Sapp
!!!END: 2005/04/08
!!!EED: Craig Stuart Sapp
!!!EEV: 2021/06/28
!!!YEC: 2021 Craig Stuart Sapp
!!!URL: https://github.com/craigsapp/joplin
!!!YEM: Licence: (CC BY-NC-SA 4.0) https://creativecommons.org/licenses/by-nc-sa/4.0
!!!YER: 2021
